svgs/solid/chart-tree-map.svg

<svg xmlns="http://www.w3.org/2000/svg" viewBox="0 0 512 512"><!--! Font Awesome Pro 6.6.0 by @fontawesome - https://fontawesome.com License - https://fontawesome.com/license (Commercial License) Copyright 2024 Fonticons, Inc. --><path d="M0 80C0 53.5 21.5 32 48 32l128 0c26.5 0 48 21.5 48 48l0 112c0 26.5-21.5 48-48 48L48 240c-26.5 0-48-21.5-48-48L0 80zM0 320c0-26.5 21.5-48 48-48l128 0c26.5 0 48 21.5 48 48l0 112c0 26.5-21.5 48-48 48L48 480c-26.5 0-48-21.5-48-48L0 320zM304 32l160 0c26.5 0 48 21.5 48 48l0 32c0 26.5-21.5 48-48 48l-160 0c-26.5 0-48-21.5-48-48l0-32c0-26.5 21.5-48 48-48zM256 240c0-26.5 21.5-48 48-48l160 0c26.5 0 48 21.5 48 48l0 32c0 26.5-21.5 48-48 48l-160 0c-26.5 0-48-21.5-48-48l0-32zm48 112l160 0c26.5 0 48 21.5 48 48l0 32c0 26.5-21.5 48-48 48l-160 0c-26.5 0-48-21.5-48-48l0-32c0-26.5 21.5-48 48-48z"/></svg>

<svg xmlns="http://www.w3.org/2000/svg" viewBox="0 0 512 512"><!--! Font Awesome Pro 6.4.2 by @fontawesome - https://fontawesome.com License - https://fontawesome.com/license (Commercial License) Copyright 2023 Fonticons, Inc. --><path d="M0 80C0 53.5 21.5 32 48 32H176c26.5 0 48 21.5 48 48V192c0 26.5-21.5 48-48 48H48c-26.5 0-48-21.5-48-48V80zM0 320c0-26.5 21.5-48 48-48H176c26.5 0 48 21.5 48 48V432c0 26.5-21.5 48-48 48H48c-26.5 0-48-21.5-48-48V320zM304 32H464c26.5 0 48 21.5 48 48v32c0 26.5-21.5 48-48 48H304c-26.5 0-48-21.5-48-48V80c0-26.5 21.5-48 48-48zM256 240c0-26.5 21.5-48 48-48H464c26.5 0 48 21.5 48 48v32c0 26.5-21.5 48-48 48H304c-26.5 0-48-21.5-48-48V240zm48 112H464c26.5 0 48 21.5 48 48v32c0 26.5-21.5 48-48 48H304c-26.5 0-48-21.5-48-48V400c0-26.5 21.5-48 48-48z"/></svg>
